X:148
T:Steirer
C:traditionell
R:Steirer
A:Bad Ischl, Salzkammergut
B:"Pfeifermusik aus Bad Ischl", Lois Blamberger, 3. Auflage, Bad Ischl 1990
S:im buch mit der Angabe: aus der Sammlung vom Blamberger Lois
N:im buch in D, nr. 3/1
Z:abc transcription Simon Wascher
M:3/4
L:1/8
K:D
V:1
.d.e |\
d2 (GB) d2 | (FA) d3 e | d2 (FA) (dF) | (GB) d2 .d.e |\
d2 (GB) d2 | (FA) d3 e | d2 (FA) (dF) | G2 z2 :|
V:2
.g.g |\
g2 (Bd) g2 | (cd) f3 g | f2 (cd) (fd) | (Bd) g2 .b.a |\
g2 (Bd) g2 | (cd) f3 g | f2 (cd fd) | B2 z2 :|
